images/jafton.svg

<svg width="136" height="68" viewBox="0 0 136 68" fill="none" xmlns="http://www.w3.org/2000/svg">
<mask id="mask0_5_861" style="mask-type:luminance" maskUnits="userSpaceOnUse" x="22" y="18" width="94" height="32">
<path d="M115.023 18H22V50H115.023V18Z" fill="white"/>
</mask>
<g mask="url(#mask0_5_861)">
<path d="M22 45.3747C22.4595 45.3393 22.9302 45.33 23.3767 45.2631C24.3609 45.118 24.9042 44.5189 25.0288 43.5496C25.1032 43.0019 25.1442 42.4502 25.1516 41.8975C25.1516 36.8482 25.1758 31.8007 25.1367 26.7514C25.1367 25.8733 25.3563 25.5273 26.2698 25.6147C27.0707 25.6845 27.8762 25.6845 28.6772 25.6147C29.4419 25.5552 29.6074 25.8696 29.6074 26.5673C29.5833 30.4463 29.5963 34.3235 29.5944 38.2026C29.5944 39.9273 29.6167 41.6519 29.5758 43.3747C29.4772 47.5477 27.3805 49.624 23.1944 49.7487C22.7944 49.7598 22.3963 49.7914 21.9963 49.8156L22 45.3747Z" fill="#2A43D4"/>
<path d="M91.0234 33.5886C90.6011 31.4677 89.509 30.1226 87.5425 29.611C85.7248 29.1403 84.1751 29.6891 82.9453 31.0658C81.4141 32.7775 81.5072 35.4454 83.109 37.1216C83.8775 37.9415 84.925 38.4441 86.0453 38.5306C87.1657 38.617 88.2779 38.281 89.163 37.5886C89.6655 37.1789 90.1421 36.7384 90.59 36.2696C93.4662 33.3858 96.3109 30.4649 99.2244 27.6184C101.756 25.1421 104.845 24.4184 108.207 25.3728C111.569 26.3272 113.65 28.6454 114.506 32.0221C114.666 32.6487 114.751 33.2919 114.759 33.9384C114.787 36.4947 114.759 39.0528 114.783 41.611C114.783 42.2156 114.597 42.4351 113.991 42.4147C113.003 42.3793 112.011 42.3793 111.023 42.4147C110.408 42.4351 110.229 42.1914 110.236 41.5998C110.261 39.1663 110.249 36.731 110.236 34.2956C110.236 32.13 109.193 30.4891 107.373 29.7542C105.513 29.01 103.695 29.4342 102.142 30.9933C99.0923 34.0575 96.0281 37.1049 92.9993 40.1877C89.0923 44.1598 82.6216 43.7635 79.3044 39.6128C77.1686 36.943 76.6588 33.9291 77.8774 30.7589C79.1072 27.5551 81.5109 25.6128 84.9472 25.0621C88.7314 24.4575 92.3723 26.1263 94.2644 29.2277C94.5769 29.7375 94.5732 30.0705 94.1248 30.4947C93.0979 31.4658 92.1174 32.4891 91.0234 33.5886Z" fill="#2A43D4"/>
<path d="M45.5089 27.222L45.695 25.6871H50.1024V42.4759H45.6968C45.6429 42.0071 45.5926 41.5643 45.5108 40.9355C43.215 42.8927 40.6847 43.3969 37.9257 42.6099C36.0652 42.0778 34.6382 40.9355 33.5554 39.3559C31.1033 35.7801 31.4364 30.8778 34.361 27.7429C35.0454 26.983 35.8729 26.3655 36.7961 25.9256C37.7193 25.4857 38.7202 25.232 39.7415 25.1792C41.8717 25.0452 43.7675 25.6499 45.5089 27.222ZM40.9992 38.6173C43.7061 38.6266 45.6317 36.7122 45.6075 34.0387C45.5852 31.4173 43.6596 29.4676 41.0606 29.4341C38.4615 29.4006 36.4615 31.395 36.4671 34.0703C36.4726 36.7457 38.3219 38.608 40.9992 38.6173Z" fill="#2A43D4"/>
<path d="M59.3098 25.5946C60.3982 25.5946 61.2559 25.6188 62.1117 25.5946C62.7201 25.5723 63.0233 25.7285 62.9843 26.4132C62.935 27.3372 62.935 28.2631 62.9843 29.1871C63.014 29.8178 62.7554 29.989 62.1694 29.9648C61.308 29.9295 60.4466 29.9555 59.4326 29.9555V31.096C59.4326 34.5174 59.401 37.9388 59.455 41.3602C59.4698 42.2513 59.1647 42.4876 58.3387 42.4281C57.5337 42.3654 56.7251 42.3654 55.9201 42.4281C55.0289 42.5062 54.8317 42.1285 54.841 41.3118C54.8764 37.963 54.8578 34.5936 54.854 31.2336C54.854 29.9778 54.854 29.9778 53.5722 29.9741C52.3443 29.9741 52.3443 29.9741 52.3424 28.7853C52.3424 27.9834 52.3629 27.1816 52.3424 26.3816C52.3238 25.8234 52.5284 25.6374 53.0977 25.6225C54.6996 25.589 54.6996 25.5648 54.9303 23.9276C55.3973 20.642 57.8457 18.5471 61.3489 18.4392C61.8401 18.4243 62.3312 18.4392 62.895 18.4392V22.6811C61.7992 22.8671 60.4764 22.6811 59.801 23.8737C59.548 24.3257 59.5052 24.8839 59.3098 25.5946Z" fill="#2A43D4"/>
<path d="M64.4372 29.9679V25.6274C65.107 25.6274 65.7395 25.5939 66.3777 25.6274C67.0753 25.6739 67.3953 25.4656 67.3674 24.6972C67.3358 23.8804 67.1516 22.8367 67.5665 22.3009C67.9814 21.7651 69.0549 21.7093 69.8493 21.4618C70.4893 21.2628 71.1367 21.0897 71.8958 20.8721C71.8958 22.2228 71.9293 23.4507 71.8828 24.6749C71.8549 25.3707 72.1191 25.6163 72.7907 25.5846C73.4995 25.5511 74.2121 25.5958 74.9228 25.5753C75.4251 25.5604 75.6577 25.739 75.6465 26.2674C75.6223 27.2535 75.6167 28.2395 75.6465 29.2237C75.6651 29.819 75.3823 29.9567 74.8558 29.9381C74.0837 29.9121 73.3098 29.9493 72.5377 29.927C72.0558 29.9139 71.8865 30.113 71.8902 30.58C71.9051 32.673 71.8809 34.7679 71.9051 36.8609C71.9163 37.8321 72.3925 38.3065 73.3935 38.3735C74.093 38.42 74.7981 38.3735 75.626 38.3735C75.626 39.6758 75.6465 40.8721 75.6019 42.0609C75.6019 42.2321 75.2912 42.5037 75.094 42.5372C73.3581 42.8293 71.6242 42.7474 69.9925 42.0888C68.0446 41.3018 67.4363 39.5939 67.3767 37.6832C67.306 35.406 67.3339 33.1251 67.36 30.8479C67.36 30.1837 67.1739 29.8823 66.467 29.9344C65.827 30.0051 65.1814 29.9679 64.4372 29.9679Z" fill="#2A43D4"/>
<path d="M101.047 34.4258C101.047 37.0751 101.06 39.5569 101.023 42.0369C101.023 42.223 100.675 42.5411 100.48 42.5486C99.3079 42.5988 98.1321 42.6044 96.9619 42.5486C96.7516 42.5374 96.4037 42.1765 96.387 41.9588C96.3355 41.13 96.3287 40.299 96.3665 39.4695C96.3594 39.2563 96.425 39.047 96.5526 38.876C98.0019 37.4193 99.4661 35.9867 101.047 34.4258Z" fill="#2A43D4"/>
<path d="M30.1061 21.0496C30.0865 21.7801 29.785 22.4747 29.2649 22.9879C28.7447 23.5011 28.0461 23.7932 27.3154 23.8031C26.9537 23.8056 26.5951 23.7359 26.2606 23.5981C25.9261 23.4603 25.6224 23.2572 25.3674 23.0006C25.1124 22.744 24.9111 22.4391 24.7754 22.1038C24.6396 21.7685 24.5721 21.4095 24.5768 21.0477C24.5917 20.3177 24.8862 19.6212 25.3996 19.1019C25.913 18.5827 26.6061 18.2802 27.3359 18.257C28.7666 18.2384 30.1006 19.5817 30.1061 21.0496Z" fill="#2A43D4"/>
<path d="M99.7059 24.9075L96.3757 28.2117C96.3757 27.1642 96.3552 26.2173 96.3999 25.274C96.3999 25.1438 96.7329 24.9317 96.919 24.9242C97.7971 24.8833 98.679 24.9075 99.7059 24.9075Z" fill="#2A43D4"/>
</g>
</svg>

<svg xmlns="http://www.w3.org/2000/svg" width="136" height="68" fill="none"><mask id="a" width="94" height="32" x="22" y="18" maskUnits="userSpaceOnUse" style="mask-type:luminance"><path fill="#fff" d="M115.023 18H22v32h93.023V18Z"/></mask><g fill="#2A43D4" mask="url(#a)"><path d="M22 45.375c.46-.036.93-.045 1.377-.112.984-.145 1.527-.744 1.652-1.713.074-.548.115-1.1.123-1.652 0-5.05.024-10.097-.015-15.147 0-.878.22-1.224 1.133-1.136.8.07 1.606.07 2.407 0 .765-.06.93.255.93.952-.024 3.88-.01 7.757-.013 11.636 0 1.724.023 3.449-.018 5.172-.099 4.173-2.195 6.249-6.382 6.374-.4.01-.798.042-1.198.067L22 45.375ZM91.023 33.589c-.422-2.121-1.514-3.466-3.48-3.978-1.818-.47-3.368.078-4.598 1.455-1.53 1.712-1.438 4.38.164 6.056a4.5 4.5 0 0 0 6.054.467c.502-.41.98-.85 1.427-1.32 2.876-2.883 5.72-5.804 8.634-8.65 2.532-2.477 5.621-3.2 8.983-2.246 3.362.954 5.443 3.272 6.299 6.65.16.626.245 1.269.253 1.915.028 2.557 0 5.115.024 7.673 0 .605-.186.824-.792.804a41.487 41.487 0 0 0-2.968 0c-.615.02-.794-.224-.787-.815.025-2.434.013-4.869 0-7.304 0-2.166-1.043-3.807-2.863-4.542-1.86-.744-3.678-.32-5.231 1.24-3.05 3.063-6.114 6.11-9.143 9.194-3.907 3.972-10.377 3.575-13.695-.575-2.135-2.67-2.645-5.684-1.427-8.854 1.23-3.204 3.634-5.146 7.07-5.697 3.784-.605 7.425 1.064 9.317 4.166.313.51.31.842-.14 1.267-1.026.97-2.007 1.994-3.1 3.094ZM45.509 27.222l.186-1.535h4.407v16.789h-4.405c-.054-.469-.104-.912-.186-1.54-2.296 1.957-4.826 2.46-7.585 1.674-1.86-.532-3.288-1.675-4.37-3.254-2.453-3.576-2.12-8.478.805-11.613a7.782 7.782 0 0 1 5.38-2.564c2.13-.134 4.026.47 5.768 2.043Zm-4.51 11.395c2.707.01 4.633-1.905 4.608-4.578-.022-2.622-1.947-4.571-4.546-4.605-2.6-.033-4.6 1.961-4.594 4.636.006 2.676 1.855 4.538 4.532 4.547ZM59.31 25.595c1.088 0 1.946.024 2.802 0 .608-.023.911.134.872.818-.049.924-.049 1.85 0 2.774.03.63-.229.802-.815.778-.861-.035-1.722-.01-2.736-.01v1.141c0 3.421-.032 6.843.022 10.264.015.891-.29 1.128-1.116 1.068a15.573 15.573 0 0 0-2.419 0c-.891.078-1.088-.3-1.079-1.116.035-3.349.017-6.718.013-10.078 0-1.256 0-1.256-1.282-1.26-1.228 0-1.228 0-1.23-1.189 0-.802.02-1.603 0-2.403-.018-.559.186-.745.756-.76 1.602-.033 1.602-.057 1.832-1.694.467-3.286 2.916-5.38 6.419-5.489.491-.015.982 0 1.546 0v4.242c-1.096.186-2.419 0-3.094 1.193-.253.452-.296 1.01-.491 1.72ZM64.437 29.968v-4.34c.67 0 1.303-.034 1.94 0 .698.046 1.018-.162.99-.93-.031-.818-.215-1.861.2-2.397.414-.536 1.488-.592 2.282-.84.64-.198 1.288-.371 2.047-.589 0 1.35.033 2.579-.013 3.803-.028.696.236.941.908.91.709-.034 1.421.01 2.132-.01.502-.015.735.164.724.692-.025.986-.03 1.973 0 2.957.018.595-.265.733-.791.714-.772-.026-1.546.011-2.318-.011-.482-.013-.651.186-.648.653.015 2.093-.01 4.188.015 6.28.011.972.487 1.447 1.489 1.514.699.046 1.404 0 2.232 0 0 1.302.02 2.498-.024 3.687 0 .171-.31.443-.508.476-1.736.292-3.47.21-5.101-.448-1.948-.787-2.557-2.495-2.616-4.406-.071-2.277-.043-4.558-.017-6.835 0-.664-.186-.966-.893-.914-.64.071-1.286.034-2.03.034Z"/><path d="M101.047 34.426c0 2.65.013 5.13-.024 7.61 0 .187-.348.505-.543.513-1.172.05-2.348.055-3.518 0-.21-.012-.558-.373-.575-.59a23.148 23.148 0 0 1-.02-2.49.94.94 0 0 1 .186-.593c1.449-1.457 2.913-2.89 4.494-4.45ZM30.106 21.05a2.83 2.83 0 0 1-2.79 2.753 2.72 2.72 0 0 1-2.74-2.755 2.85 2.85 0 0 1 2.76-2.791c1.43-.019 2.765 1.325 2.77 2.793ZM99.706 24.907l-3.33 3.305c0-1.048-.02-1.995.024-2.938 0-.13.333-.342.519-.35.878-.04 1.76-.017 2.787-.017Z"/></g></svg>
